!!!OTL: Bonny Light Horseman
!!!ONM: 69.
**kern
*clefG2
*k[b-]
*d:
*M3/4
*MM100
{(8a
8f)
=1
4d
4.f
8a
=2
4g
4.f
8f
=3
4b-
4.cc
8dd
=4
4cc
4.a}
{8dd
=5
4ff
4.ff
8dd
=6
4b-
4.b-
8b-
=7
4b-
4.cc
8dd
=8
4dd
4.cc}
{(16a
16g)
=9
4.f
8f
(8g
8a)
=10
4g
4.f
8f
=11
4a
4.cc
8dd
=12
4dd
4.cc}
{16dd
16dd
=13
4ff
4ff
4ee
=14
4dd
4a
4b-
=15
4cc
4.cc
8dd
=16
4dd
4.cc}
=||
{16a
16g
=17
4.f
8f
(8g
8a)
=18
4g
4.f
16f
16f
=19
4b-
4.cc
8dd
=20
8dd
4.cc}
{4a
=21
8b-
4.ff
4dd
=22
4cc
4.a
8a
=23
4f
4.d
8d
=24
4.d
8r}
==
*-
!!!CNT: Folksongs of Maritime Canada
!!!MRD: 1928///-1932///
!!!OCL: Helen Creighton
!!!YOR: Songs and Ballads from Nova Scotia
!!!PPR: J.M. Dent & Sons, Limited
!!!PPP: Toronto, Canada
!!!PDT: 1932///
!!!reprint: Dover Publications, 1992: ISBN 0-486-21703-5
!!!ENC1: Craig Stuart Sapp (music and bibliographic data)                       
!!!ENC2: Marcus Pearce (phrase markings and key designations)                   
!!!ENC3: Darrell Conklin (phrase markings and key designations)   
!!!END: 2002/04/10/
!!!EEV: 2004/06/05
!!!MPN: Mr. Ben Henneberry
!!!PPG: 143
!!!EFL: 70/152
!!!ARE: Canada; Nova Scotia
!!!verses: 5
!!!VTS: 1645388186
